X:1
T:Kettlebell, 99.99
T:Kettlebell, 99.99
T:Alfred Edward Redhead (1855-1937)
T:Public Domain Courtesy of the Cyber Hymnal™
C:Alfred Edward Redhead (1855-1937)
Z:Public Domain
Z:Courtesy of the Cyber Hymnal™
%%score ( 1 2 ) ( 3 4 )
L:1/8
Q:1/4=110
M:4/4
K:A
V:1 treble 
V:2 treble 
V:3 bass 
V:4 bass 
V:1
 [CE]4 [DF]2 [CE]2 | ([CE]2 [CA]2) [Ec]4 | [^EB]4 [FA]2 [DF]2 | [CE]6 z2 | [CE]4 [DF]2 [B,E]2 | %5
 (E2 A2) [Ec]4 | c4 B2 A2 | [EB]8 | [CE]4 [^B,F]2 [CE]2 | (E2 A2) c4 | B4 A2 [DF]2 | [CE]6 z2 | %12
 E4 F2 [DG]2 | [CA]2 [FB]2 [^Ec]4 | [FB]4 E4 | [CA]8 |] %16
V:2
 x8 | x8 | x8 | x8 | x8 | E4 x4 | ^D8 | x8 | x8 | C8 | D6 x2 | x8 | C6 x2 | x8 | x4 (E2 D2) | x8 |] %16
V:3
 [A,,A,]8- | [A,,A,]8 | G,4 A,4- | [A,,A,]6 z2 | [A,,A,]4 A,2 G,2 | A,8 | [B,,A,]4 G,2 F,2 | %7
 [E,G,]8 | A,4 ^D,2 E,2 | [A,,E,]8 | F,6 G,2 | [A,,A,]6 z2 | [A,C]4 [F,A,]2 [^E,B,]2 | %13
 [F,A,]2 [D,F,]2 [C,G,]4 | [D,F,]4 [E,G,]4 | [A,,E,A,]8 |] %16
V:4
 x8 | x8 | D,8 | x8 | x4 D,4 | C,4 A,,4 | x4 B,,4 | x8 | A,,8 | x8 | A,,8 | x8 | x8 | x8 | x8 | %15
 x8 |] %16

